X: 1
T: Mick Hoy's Recipe For Boiled Cabbage
M: 3/4
L: 1/8
R: mazurka
K: Amin
|: c>B |
A>c e2 f>e | A>c e2 f>e | d>c B2 c>d | e>c B2 c>B |
A>c e2 f>e | A>c e2 f>e | d>c B2 e2 | A4 :|
|: c>B |
A2 A>B c>A | d>c B2 B>A | ^G2 G>A B>G | e>d B>c B>^G |
A2 A>B c>A | d>c B2 c>d | e>c B2 c>B | A4 :|
|: ^G2 |
G2 g>a g>f | f2 e>^d e2 | G>B d>B G>B | (3cdc (3BcB (3ABA |
G2 g>a g>f | f2 e>^d e2 | G>B d>B G>B |1 c2 A2 :|
2 A4 ||
